assets/images/icons/vk.svg

<svg width="18" height="10" viewBox="0 0 18 10" fill="none" xmlns="http://www.w3.org/2000/svg">
<path d="M9.25391 9.50202H10.2828C10.2828 9.50202 10.6101 9.45834 10.7504 9.32731C10.8907 9.19627 10.8907 8.89052 10.8907 8.89052C10.8907 8.89052 10.8907 7.62382 11.4987 7.44911C12.1066 7.27439 12.9484 8.67212 13.7902 9.23995C14.4449 9.63306 14.9125 9.5457 14.9125 9.5457L17.2041 9.50202C17.2041 9.50202 18.3732 9.41466 17.812 8.54108C17.7652 8.45372 17.4846 7.8859 16.1284 6.70656C14.7255 5.48355 14.9125 5.65826 16.5961 3.51799C17.6249 2.20761 18.0458 1.42139 17.9055 1.07196C17.7652 0.766203 17.017 0.853561 17.017 0.853561H14.4449C14.4449 0.853561 14.2578 0.809882 14.1175 0.89724C13.9772 0.984598 13.8837 1.15931 13.8837 1.15931C13.8837 1.15931 13.4628 2.16393 12.9484 3.03752C11.826 4.82836 11.3584 4.9594 11.1713 4.82836C10.7504 4.60996 10.8439 3.82374 10.8439 3.25591C10.8439 1.50875 11.1245 0.766203 10.2828 0.591486C10.0022 0.547807 9.8151 0.504128 9.06685 0.460449C8.13154 0.460449 7.38329 0.460449 6.9624 0.678845C6.68181 0.809882 6.44798 1.11564 6.58828 1.11564C6.77534 1.11564 7.14946 1.20299 7.33653 1.46507C7.61712 1.8145 7.57035 2.55705 7.57035 2.55705C7.57035 2.55705 7.71065 4.60996 7.19623 4.87204C6.86887 5.04675 6.40122 4.69732 5.37238 3.03752C4.85795 2.20761 4.43707 1.29035 4.43707 1.29035C4.43707 1.29035 4.43706 1.11564 4.29677 1.02828C4.10971 0.89724 3.92264 0.89724 3.92264 0.89724H1.49084C1.49084 0.89724 1.11671 0.89724 0.976417 1.07196C0.83612 1.20299 0.976417 1.46507 0.976417 1.46507C0.976417 1.46507 2.8938 5.61458 5.04502 7.71118C7.00917 9.63306 9.25391 9.50202 9.25391 9.50202Z" fill="#543018"/>
</svg>

<svg width="18" height="10" fill="none" xmlns="http://www.w3.org/2000/svg"><path d="M9.254 9.502h1.029s.327-.044.467-.175c.14-.13.14-.436.14-.436s0-1.267.609-1.442c.608-.175 1.45 1.223 2.291 1.791.655.393 1.123.306 1.123.306l2.291-.044s1.17-.087.608-.96c-.047-.088-.327-.656-1.684-1.835-1.402-1.223-1.216-1.049.468-3.189 1.029-1.31 1.45-2.097 1.31-2.446-.14-.306-.889-.218-.889-.218h-2.572s-.187-.044-.328.043c-.14.088-.233.262-.233.262s-.421 1.005-.936 1.879c-1.122 1.79-1.59 1.921-1.777 1.79-.42-.218-.327-1.004-.327-1.572 0-1.747.28-2.49-.561-2.665-.28-.043-.468-.087-1.216-.13-.935 0-1.684 0-2.105.218-.28.13-.514.437-.374.437.187 0 .561.087.749.35.28.349.233 1.091.233 1.091s.14 2.053-.374 2.315c-.327.175-.795-.175-1.824-1.834a18.303 18.303 0 01-.935-1.748s0-.174-.14-.262c-.187-.13-.374-.13-.374-.13H1.49s-.374 0-.515.174c-.14.131 0 .393 0 .393s1.918 4.15 4.069 6.246c1.964 1.922 4.209 1.791 4.209 1.791z" fill="#543018"/></svg>
